img/logo--black.svg

<svg fill="none" height="160" viewBox="0 0 160 160" width="160" xmlns="http://www.w3.org/2000/svg"><g fill="#1f1d1d"><path d="m22.5805 60.8212h2.3606v-35.4071h108.8529v35.4071h2.361v-37.8212h-113.5745z"/><path d="m99.9578 68.3586c-4.6164.7779-8.4459 4.6941-9.259 9.4687-1.1017 6.5449 3.0426 12.5266 9.3902 13.5727 3.043.5096 6.767-.1878 8.866-1.6362.97-.6974 2.806-2.4142 2.806-2.6556 0-.0804-.367-.4291-.813-.7778l-.787-.5902-1.023.9389c-1.915 1.7703-3.488 2.3873-6.295 2.5214-3.095.1341-4.8262-.456-6.8196-2.28-2.3345-2.1459-3.3574-4.8283-3.0427-7.9398.341-3.3261 2.1771-6.0353 5.0886-7.4838 1.6-.8047 1.9407-.8851 4.2487-.8851 2.125 0 2.702.1073 3.987.7242.814.3755 2.02 1.2071 2.676 1.824l1.18 1.0998.787-.5901c.446-.3488.813-.7243.813-.8316 0-.5365-2.518-2.6823-4.013-3.4066-1.521-.7778-4.223-1.3948-5.692-1.3411-.367.0268-1.311.1341-2.0982.2682z"/><path d="m153.204 68.8682c-2.308 1.7435-8.525 4.1845-13.508 5.2306-7.869 1.7167-9.784 2.4946-11.909 4.8551-.682.751-1.521 2.0654-1.888 2.8969l-.63 1.5021h-1.836c-2.282 0-3.567-.3487-5.167-1.3948-1.049-.6706-1.364-.7511-1.967-.5365-.708.2414-.708.2683.997 1.073 2.229 1.0193 4.983 1.663 7.265 1.663 1.285 0 1.915.1073 2.151.4024 1.18 1.4485 6.584 2.0922 9.443 1.0997 5.954-2.0654 11.2-6.8131 16.551-14.9675 1.573-2.3873 1.678-2.736.498-1.824zm-1.443 1.7972c-3.357 5.3915-8.734 10.8903-12.564 12.8753-4.144 2.1459-8.236 2.4946-11.646.9925l-.97-.4292 1.705-.3755c.944-.1878 2.728-.7243 3.987-1.1803 2.465-.8583 7.108-2.9774 6.951-3.1383-.053-.0537-1.076.3218-2.23.8315-3.541 1.5558-10.308 3.4602-10.728 3.0311-.262-.2951.971-2.6288 2.02-3.7822 2.072-2.3068 3.777-3.0042 10.885-4.4258 5.43-1.0998 9.443-2.5751 11.935-4.4259 1.154-.8584 1.206-.8584.655.0268z"/><path d="m4.08852 68.9487c-.07868.1609-.10491 5.2038-.07868 11.1854l.07868 10.8636 3.93445-.0269c3.54103 0 4.06563-.0804 5.32463-.6437 3.3049-1.4753 4.6426-5.2575 3.0688-8.5031-1.2327-2.5214-3.095-3.4602-7.52785-3.7553l-2.57051-.1609v-6.8937h8.65576v-2.4141h-5.37705c-4.0656 0-5.42954.0805-5.50823.3487zm8.52468 12.1511c2.6491 1.5826 2.8065 5.2842.2885 6.8668-.7869.5096-1.3902.6169-3.75086.7242l-2.8328.0805v-8.4226l2.70165.1073c2.09841.0805 2.88531.2146 3.59351.6438z"/><path d="m22.5805 91.1586 1.1278-.0805 1.1017-.0805v-22.2635l-1.1017-.0805-1.1278-.0804z"/><path d="m30.187 68.7878c0 .1341 1.4164 2.575 3.1475 5.4183 1.7312 2.8433 3.1476 5.2306 3.1476 5.3111 0 .0536-1.5213 2.6287-3.4099 5.7134-1.8623 3.0579-3.4098 5.6597-3.4098 5.7402s.5508.161 1.259.161h1.2328l2.7541-4.5869c1.4951-2.5214 2.8066-4.6136 2.8853-4.6673.0787-.0536.9705 1.3144 1.9672 3.0311 3.7508 6.384 3.6197 6.2231 4.9836 6.2231.6558 0 1.1804-.0805 1.1804-.2146 0-.1073-1.5214-2.7092-3.4099-5.8207-3.0951-5.0965-3.3574-5.6598-3.0426-6.1695 1.8098-2.8432 5.9279-9.8174 5.9279-10.032 0-.1609-.4984-.295-1.1541-.295h-1.1279l-2.5705 4.2918c-1.4164 2.3604-2.6492 4.2917-2.7279 4.2917-.0787-.0268-1.2853-1.9313-2.6492-4.2381l-2.4918-4.2113-1.2328-.0805c-.7082-.0536-1.259.0269-1.259.1342z"/><path d="m51.1708 91.1318h12.3279v-2.4142h-10.2295v-8.5835h10.2295v-2.28h-10.0984l-.1574-6.84h10.5443l-.0786-1.1534-.0787-1.1266-6.2165-.0805-6.2426-.0536z"/><path d="m75.6168 71.0678c-4.223 9.8978-8.446 19.8494-8.446 19.9567 0 .0804.5509.1073 1.2328.0536l1.2328-.0804 3.541-8.3958c1.9673-4.5868 3.6197-8.369 3.6984-8.369s1.7312 3.809 3.6722 8.4495l3.5147 8.4494h1.1541c1.0754 0 1.1541-.0537.9967-.617-.2885-1.1534-9.0492-21.7807-9.2852-21.8612-.1312-.0268-.7082 1.0462-1.3115 2.4142z"/><path d="m22.5805 137h113.5745v-37.8212h-2.361v35.4072h-108.8529v-35.4072h-2.3606z"/></g></svg>

<svg width="160" height="160" viewBox="0 0 160 160" fill="none" xmlns="http://www.w3.org/2000/svg">
<path d="M22.5805 60.8212H24.9411V25.4141H133.794V60.8212H136.155V23H22.5805V60.8212Z" fill="#1F1D1D"/>
<path d="M99.9578 68.3586C95.3414 69.1365 91.5119 73.0527 90.6988 77.8273C89.5971 84.3722 93.7414 90.3539 100.089 91.4C103.132 91.9096 106.856 91.2122 108.955 89.7638C109.925 89.0664 111.761 87.3496 111.761 87.1082C111.761 87.0278 111.394 86.6791 110.948 86.3304L110.161 85.7402L109.138 86.6791C107.223 88.4494 105.65 89.0664 102.843 89.2005C99.748 89.3346 98.0168 88.7445 96.0234 86.9205C93.6889 84.7746 92.666 82.0922 92.9807 78.9807C93.3217 75.6546 95.1578 72.9454 98.0693 71.4969C99.6693 70.6922 100.01 70.6118 102.318 70.6118C104.443 70.6118 105.02 70.7191 106.305 71.336C107.119 71.7115 108.325 72.5431 108.981 73.16L110.161 74.2598L110.948 73.6697C111.394 73.3209 111.761 72.9454 111.761 72.8381C111.761 72.3016 109.243 70.1558 107.748 69.4315C106.227 68.6537 103.525 68.0367 102.056 68.0904C101.689 68.1172 100.745 68.2245 99.9578 68.3586Z" fill="#1F1D1D"/>
<path d="M153.204 68.8682C150.896 70.6117 144.679 73.0527 139.696 74.0988C131.827 75.8155 129.912 76.5934 127.787 78.9539C127.105 79.7049 126.266 81.0193 125.899 81.8508L125.269 83.3529H123.433C121.151 83.3529 119.866 83.0042 118.266 81.9581C117.217 81.2875 116.902 81.207 116.299 81.4216C115.591 81.663 115.591 81.6899 117.296 82.4946C119.525 83.5139 122.279 84.1576 124.561 84.1576C125.846 84.1576 126.476 84.2649 126.712 84.56C127.892 86.0085 133.296 86.6522 136.155 85.6597C142.109 83.5943 147.355 78.8466 152.706 70.6922C154.279 68.3049 154.384 67.9562 153.204 68.8682ZM151.761 70.6654C148.404 76.0569 143.027 81.5557 139.197 83.5407C135.053 85.6866 130.961 86.0353 127.551 84.5332L126.581 84.104L128.286 83.7285C129.23 83.5407 131.014 83.0042 132.273 82.5482C134.738 81.6899 139.381 79.5708 139.224 79.4099C139.171 79.3562 138.148 79.7317 136.994 80.2414C133.453 81.7972 126.686 83.7016 126.266 83.2725C126.004 82.9774 127.237 80.6437 128.286 79.4903C130.358 77.1835 132.063 76.4861 139.171 75.0645C144.601 73.9647 148.614 72.4894 151.106 70.6386C152.26 69.7802 152.312 69.7802 151.761 70.6654Z" fill="#1F1D1D"/>
<path d="M4.08852 68.9487C4.00984 69.1096 3.98361 74.1525 4.00984 80.1341L4.08852 90.9977L8.02297 90.9708C11.564 90.9708 12.0886 90.8904 13.3476 90.3271C16.6525 88.8518 17.9902 85.0696 16.4164 81.824C15.1837 79.3026 13.3214 78.3638 8.88855 78.0687L6.31804 77.9078V71.0141H14.9738V68.6H9.59675C5.53115 68.6 4.16721 68.6805 4.08852 68.9487ZM12.6132 81.0998C15.2623 82.6824 15.4197 86.384 12.9017 87.9666C12.1148 88.4762 11.5115 88.5835 9.15084 88.6908L6.31804 88.7713V80.3487L9.01969 80.456C11.1181 80.5365 11.905 80.6706 12.6132 81.0998Z" fill="#1F1D1D"/>
<path d="M22.5805 91.1586L23.7083 91.0781L24.81 90.9976V68.7341L23.7083 68.6536L22.5805 68.5732V91.1586Z" fill="#1F1D1D"/>
<path d="M30.187 68.7878C30.187 68.9219 31.6034 71.3628 33.3345 74.2061C35.0657 77.0494 36.4821 79.4367 36.4821 79.5172C36.4821 79.5708 34.9608 82.1459 33.0722 85.2306C31.2099 88.2885 29.6624 90.8903 29.6624 90.9708C29.6624 91.0513 30.2132 91.1318 30.9214 91.1318H32.1542L34.9083 86.5449C36.4034 84.0235 37.7149 81.9313 37.7936 81.8776C37.8723 81.824 38.7641 83.192 39.7608 84.9087C43.5116 91.2927 43.3805 91.1318 44.7444 91.1318C45.4002 91.1318 45.9248 91.0513 45.9248 90.9172C45.9248 90.8099 44.4034 88.208 42.5149 85.0965C39.4198 80 39.1575 79.4367 39.4723 78.927C41.2821 76.0838 45.4002 69.1096 45.4002 68.895C45.4002 68.7341 44.9018 68.6 44.2461 68.6H43.1182L40.5477 72.8918C39.1313 75.2522 37.8985 77.1835 37.8198 77.1835C37.7411 77.1567 36.5345 75.2522 35.1706 72.9454L32.6788 68.7341L31.446 68.6536C30.7378 68.6 30.187 68.6805 30.187 68.7878Z" fill="#1F1D1D"/>
<path d="M51.1708 91.1318H63.4987V88.7176H53.2692V80.1341H63.4987V77.8541H53.4003L53.2429 71.0141H63.7872L63.7086 69.8607L63.6299 68.7341L57.4134 68.6536L51.1708 68.6V91.1318Z" fill="#1F1D1D"/>
<path d="M75.6168 71.0678C71.3938 80.9656 67.1708 90.9172 67.1708 91.0245C67.1708 91.1049 67.7217 91.1318 68.4036 91.0781L69.6364 90.9977L73.1774 82.6019C75.1447 78.0151 76.7971 74.2329 76.8758 74.2329C76.9545 74.2329 78.607 78.0419 80.548 82.6824L84.0627 91.1318H85.2168C86.2922 91.1318 86.3709 91.0781 86.2135 90.5148C85.925 89.3614 77.1643 68.7341 76.9283 68.6536C76.7971 68.6268 76.2201 69.6998 75.6168 71.0678Z" fill="#1F1D1D"/>
<path d="M22.5805 137H136.155V99.1788H133.794V134.586H24.9411V99.1788H22.5805V137Z" fill="#1F1D1D"/>
</svg>
